static/img/flags/Flag_of_Macedonia.svg

<svg xmlns="http://www.w3.org/2000/svg" width="1400" height="700" viewBox="0 0 56 28"><path fill="#d20000" d="M0 0h56v28H0z"/><g fill="#ffe600"><path d="M0 0h8.4L28 13.5 47.6 0H56L0 28h8.4L28 14.5 47.6 28H56zm56 11.2v5.6L0 11.2v5.6zM25.2 0L28 12l2.8-12zm0 28L28 16l2.8 12z"/><circle cx="28" cy="14" r="4.5" stroke="#d20000"/></g></svg>

<svg xmlns="http://www.w3.org/2000/svg" width="1400" height="700" viewBox="0 0 56 28">
<rect width="56" height="28" fill="#d20000"/>
<g fill="#ffe600">
<path d="M 0,0 8.4,0 28,13.5 47.6,0 56,0 0,28 8.4,28 28,14.5 47.6,28 56,28 z M 56,11.2 56,16.8 0,11.2 0,11.2 0,16.8 z M 25.2,0 28,12 30.8,0 z M 25.2,28 28,16 30.8,28 z"/>
<circle cx="28" cy="14" r="4.5" stroke="#d20000"/>
</g>
</svg>
